!!!OTL: 1626. Bruder Lustig.
!!!ARE: Europa, Mitteleuropa, Deutschland, Helgoland
!!!SCT: E1626A
!!!TXL: @@DE
!!!YEM: Copyright 1995, estate of Helmut Schaffrath.
**kern	**text
*ICvox	*
*M3/4	*
*k[b-]	*
*F:	*
!LO:TX:a:t=Langsam.	!
!LO:TX:a:t=auf Helgoland 1838.	!
{8cc	Jn
8a	Gluckgluck
8ff	.
=1	=1
8dd	leb'
8dd	.
8dd	ich,
8dd	in
8ff	Gluckgluck
8dd	.
=2	=2
4cc	ſchweb
8a}	ich;
{8cc	und
8dd	wer
8cc	in
=3	=3
8cc	Gluckgluck
8b-	.
8g	lebt
8dd	der
8cc	iſt
8b-	mein
=4	=4
8b-L	Bru-
8aJ	.
8a}	-der.
{8cc	Jn
8a	Gluckgluck
8ff	.
=5	=5
8dd	leb'
8dd	.
8dd	ich,
8dd	in
8ff	Gluckgluck
8dd	.
=6	=6
4cc	ſchweb
8a}	ich;
{8cc	und
8dd	wer
8cc	in
=7	=7
8cc	Gluckgluck
8b-	.
8g	lebt
8dd	der
8cc	iſt
8b-	mein
=8	=8
8b-L	Bru-
8aJ	.
8a}	-der.
==	==
!!!AGN: Staende -, Handwerker -, Gesellen - Lied; Trink - Lied
!!!ONB: ESAC (Essen Associative Code) Database: ERK3
!!!AMT: simple triple
!!!AIN: vox
!!!EED: Helmut Schaffrath
!!!EEV: 1.0
!!!GTL: Staendelieder (Berufslieder). 8. Handwerkerlieder.
!!!URL-scan: https://rosdok.uni-rostock.de/mcrviewer/recordIdentifier/rosdok_ppn745177999/iview2/phys_0447.iview2?x=-449.8344612962892&y=130.4343783580698&scale=0.47549036216460333&rotation=0&layout=singlePageLayout
!!!ENC: Anna Maria Matuszewska
!!!EEV: 2025/08/01
*-	*-
